X: 10076
T: Dicky Deegan's Wasabi
R: reel
M: 4/4
K: Eminor
|:DE E2 B3A|DE E2 FDAF|DE E2 BEGA|BddB ADFA|
DE E2 B3A|DE E2 FDAF|GE E2 ABBA|GEED E2 E2:|
|:BE E2 BEGA|Bddc BE E2|AD D2 ADBD|ABBA FD D2|
BE E2 BEGA|Bddc BE E2|GE E2 ABBA|GEED E2 E2:|

